Origami/32x32/apps/minetest.svg

<svg width="32" height="32" version="1.1" viewBox="0 0 32 32" xmlns="http://www.w3.org/2000/svg">
 <path d="m15.933418 14.001088c-0.464192 0.01046-0.895641 0.07902-1.404119 0.36302l-11.425548 6.381638c-0.5088834 0.284233-1.0411683 0.820975-1.0997537 1.626952-0.058585 0.805978 0.5374459 1.567432 1.0938091 1.878189l11.437439 6.388278c0.556416 0.310784 1.066876 0.370309 1.531332 0.3597 0.464456-0.01061 0.895558-0.07896 1.404118-0.36302l11.425549-6.381638c0.508511-0.284028 1.041115-0.820659 1.099754-1.626952 0.05864-0.806294-0.537757-1.567606-1.093809-1.878189l-11.437439-6.388278c-0.556166-0.310644-1.066263-0.370058-1.530144-0.3597z" style="opacity:.2"/>
 <path d="m15.933418 13.001088c-0.464192 0.01046-0.895641 0.07902-1.404119 0.36302l-11.425548 6.381638c-0.5088834 0.284233-1.0411683 0.820975-1.0997537 1.626952-0.058585 0.805978 0.5374459 1.567432 1.0938091 1.878189l11.437439 6.388278c0.556416 0.310784 1.066876 0.370309 1.531332 0.3597 0.464456-0.01061 0.895558-0.07896 1.404118-0.36302l11.425549-6.381638c0.508511-0.284028 1.041115-0.820659 1.099754-1.626952 0.05864-0.806294-0.537757-1.567606-1.093809-1.878189l-11.437439-6.388278c-0.556166-0.310644-1.066263-0.370058-1.530144-0.3597z" style="fill:#197236"/>
 <path d="m15.933594 13.001953c-0.464192 0.01046-0.895819 0.077328-1.404297 0.361328l-11.425781 6.382813c-0.5088834 0.284233-1.0410239 0.820976-1.0996094 1.626953-0.0156014 0.214635 0.01985 0.424351 0.0839844 0.625 0.1699218-0.594584 0.5927244-1.015745 1.015625-1.251953l11.425781-6.382813c0.508478-0.284 0.940105-0.350868 1.404297-0.361328h0.001953c0.463881-0.010358 0.973131 0.048731 1.529297 0.359375l11.4375 6.388672c0.407973 0.227874 0.833001 0.699068 1.009765 1.251953 0.034568-0.120919 0.074077-0.238766 0.083985-0.375 0.05864-0.806294-0.537698-1.56637-1.09375-1.876953l-11.4375-6.388672c-0.556166-0.310644-1.065416-0.369733-1.529297-0.359375h-0.001953z" style="fill:#ffffff;opacity:.1"/>
 <path d="m10 16h4v5.5l-2 1.5-2-1.5z" style="opacity:.2"/>
 <path d="m10 15h4v5.5l-2 1.5-2-1.5z" style="fill:#a0722e"/>
 <path d="m12.042118 3.000499a1.7755408 1.7054483 0 0 0 -0.929848 0.2275113l-5.2244222 2.8972261a1.7755408 1.7054483 0 0 0 -0.8878478 1.4771113v5.7948263a1.7755408 1.7054483 0 0 0 0.8877708 1.476963l5.2244202 2.897376a1.7755408 1.7054483 0 0 0 1.775541 0l5.224421-2.897376a1.7755408 1.7054483 0 0 0 0.887847 -1.477113v-5.7948263a1.7755408 1.7054483 0 0 0 -0.887847 -1.477112l-5.224421-2.8972258a1.7755408 1.7054483 0 0 0 -0.845848 -0.2275098z" style="opacity:.2"/>
 <path d="m12.042118 2.0004989a1.7755408 1.7054483 0 0 0 -0.929848 0.2275113l-5.2244222 2.8972261a1.7755408 1.7054483 0 0 0 -0.8878478 1.4771113v5.7948264a1.7755408 1.7054483 0 0 0 0.8877708 1.476963l5.2244202 2.897376a1.7755408 1.7054483 0 0 0 1.775541 0l5.224421-2.897376a1.7755408 1.7054483 0 0 0 0.887847 -1.477113v-5.7948264a1.7755408 1.7054483 0 0 0 -0.887847 -1.477112l-5.224421-2.8972258a1.7755408 1.7054483 0 0 0 -0.845848 -0.2275098z" style="fill:#74ba2f"/>
 <path d="M 12.041532,2 A 1.7755408,1.7054483 0 0 0 11.111844,2.2285156 L 5.8872346,5.125 A 1.7755408,1.7054483 0 0 0 5.0005158,6.6015625 v 1 A 1.7755408,1.7054483 0 0 1 5.8872346,6.125 L 11.111844,3.2285156 A 1.7755408,1.7054483 0 0 1 12.041532,3 1.7755408,1.7054483 0 0 1 12.887235,3.2285156 L 18.111844,6.125 a 1.7755408,1.7054483 0 0 1 0.888672,1.4765625 v -1 A 1.7755408,1.7054483 0 0 0 18.111844,5.125 L 12.887235,2.2285156 A 1.7755408,1.7054483 0 0 0 12.041532,2 Z" style="fill:#ffffff;opacity:.2"/>
</svg>

<svg xmlns="http://www.w3.org/2000/svg" width="32" height="32" version="1.1" viewBox="0 0 32 32">
 <path style="opacity:0.2" d="m 15.933418,14.001088 c -0.464192,0.01046 -0.895641,0.07902 -1.404119,0.36302 L 3.1037506,20.745746 c -0.5088834,0.284233 -1.0411683,0.820975 -1.0997537,1.626952 -0.058585,0.805978 0.5374459,1.567432 1.0938091,1.878189 l 11.437439,6.388278 c 0.556416,0.310784 1.066876,0.370309 1.531332,0.3597 0.464456,-0.01061 0.895558,-0.07896 1.404118,-0.36302 l 11.425549,-6.381638 c 0.508511,-0.284028 1.041115,-0.820659 1.099754,-1.626952 0.05864,-0.806294 -0.537757,-1.567606 -1.093809,-1.878189 L 17.46475,14.360788 c -0.556166,-0.310644 -1.066263,-0.370058 -1.530144,-0.3597 z"/>
 <path style="fill:#197236" d="m 15.933418,13.001088 c -0.464192,0.01046 -0.895641,0.07902 -1.404119,0.36302 L 3.1037506,19.745746 c -0.5088834,0.284233 -1.0411683,0.820975 -1.0997537,1.626952 -0.058585,0.805978 0.5374459,1.567432 1.0938091,1.878189 l 11.437439,6.388278 c 0.556416,0.310784 1.066876,0.370309 1.531332,0.3597 0.464456,-0.01061 0.895558,-0.07896 1.404118,-0.36302 l 11.425549,-6.381638 c 0.508511,-0.284028 1.041115,-0.820659 1.099754,-1.626952 0.05864,-0.806294 -0.537757,-1.567606 -1.093809,-1.878189 L 17.46475,13.360788 c -0.556166,-0.310644 -1.066263,-0.370058 -1.530144,-0.3597 z"/>
 <path style="opacity:0.1;fill:#ffffff" d="M 15.933594 13.001953 C 15.469402 13.012413 15.037775 13.079281 14.529297 13.363281 L 3.1035156 19.746094 C 2.5946322 20.030327 2.0624917 20.56707 2.0039062 21.373047 C 1.9883048 21.587682 2.0237562 21.797398 2.0878906 21.998047 C 2.2578124 21.403463 2.680615 20.982302 3.1035156 20.746094 L 14.529297 14.363281 C 15.037775 14.079281 15.469402 14.012413 15.933594 14.001953 L 15.935547 14.001953 C 16.399428 13.991595 16.908678 14.050684 17.464844 14.361328 L 28.902344 20.75 C 29.310317 20.977874 29.735345 21.449068 29.912109 22.001953 C 29.946677 21.881034 29.986186 21.763187 29.996094 21.626953 C 30.054734 20.820659 29.458396 20.060583 28.902344 19.75 L 17.464844 13.361328 C 16.908678 13.050684 16.399428 12.991595 15.935547 13.001953 L 15.933594 13.001953 z"/>
 <path style="opacity:0.2" d="m 10,16 h 4 v 5.5 L 12,23 10,21.5 Z"/>
 <path style="fill:#a0722e" d="m 10,15 h 4 v 5.5 L 12,22 10,20.5 Z"/>
 <path style="opacity:0.2" d="M 12.042118,3.000499 A 1.7755408,1.7054483 0 0 0 11.11227,3.2280103 L 5.8878478,6.1252364 A 1.7755408,1.7054483 0 0 0 5,7.6023477 v 5.7948263 a 1.7755408,1.7054483 0 0 0 0.8877708,1.476963 l 5.2244202,2.897376 a 1.7755408,1.7054483 0 0 0 1.775541,0 l 5.224421,-2.897376 A 1.7755408,1.7054483 0 0 0 19,13.397024 V 7.6021977 A 1.7755408,1.7054483 0 0 0 18.112153,6.1250857 L 12.887732,3.2278599 A 1.7755408,1.7054483 0 0 0 12.041884,3.0003501 Z"/>
 <path style="fill:#74ba2f" d="M 12.042118,2.0004989 A 1.7755408,1.7054483 0 0 0 11.11227,2.2280102 L 5.8878478,5.1252363 A 1.7755408,1.7054483 0 0 0 5,6.6023476 v 5.7948264 a 1.7755408,1.7054483 0 0 0 0.8877708,1.476963 l 5.2244202,2.897376 a 1.7755408,1.7054483 0 0 0 1.775541,0 l 5.224421,-2.897376 A 1.7755408,1.7054483 0 0 0 19,12.397024 V 6.6021976 A 1.7755408,1.7054483 0 0 0 18.112153,5.1250856 L 12.887732,2.2278598 A 1.7755408,1.7054483 0 0 0 12.041884,2.00035 Z"/>
 <path style="opacity:0.2;fill:#ffffff" d="M 12.041532,2 A 1.7755408,1.7054483 0 0 0 11.111844,2.2285156 L 5.8872346,5.125 A 1.7755408,1.7054483 0 0 0 5.0005158,6.6015625 v 1 A 1.7755408,1.7054483 0 0 1 5.8872346,6.125 L 11.111844,3.2285156 A 1.7755408,1.7054483 0 0 1 12.041532,3 1.7755408,1.7054483 0 0 1 12.887235,3.2285156 L 18.111844,6.125 a 1.7755408,1.7054483 0 0 1 0.888672,1.4765625 v -1 A 1.7755408,1.7054483 0 0 0 18.111844,5.125 L 12.887235,2.2285156 A 1.7755408,1.7054483 0 0 0 12.041532,2 Z"/>
</svg>
